X: 1
T: Return To Camden Town
R: reel
M: 4/4
L: 1/8
K: Cmaj
E2 DE CA, A,2 | EDCD EGAB | cBcd edeg | aged cABG |
E2 DE CA, A,2 | EDCD EGAB | cBcd edeg | aged cAAB :||
c2 gc acgc | c2 gc BAGB | cBcd edeg | aged cAAB |
c2 gc acgc | c2 gc BAGB | AGAB cdea | gedB cABG :||
